!!! OTL: Berkowitz392
!!! Chapter: 1
!!! Section: III
!!! Page: 97
!!! Mode: 
!!! Encoder: DJB
**kern
*staff1
*I"Piano
=1-
*clefG2
*k[f#]
*G:
*M3/4
4r
4r
8b/L
8f#/J
=2
2a/
[4g/
=3
4g/]
4b\
4ee\
=4
4cc#\
4dd\
8a/L
8b/J
=5
4cc\
8g/L
8a/J
4b\
=6
8f#/L
8g/J
8a/L
8f#/J
4d/
=7
4r
8e/L
8g/J
8f#/L
8ee/J
=8
4dd\
4b\
4g/
=9
8e/L
8g/J
4cc\
8e-/L
8g/J
=10
!!linebreak:original
4cc\
8d/L
8g/J
4cc\
=11
8c#/L
8e/J
4a/
4g/
=12
8r
8f#/
8e/L
8d/J
8e/L
8f#/J
=13
8g/L
8b/J
4g/
4r
==
*-
